public/assets/images/str/au-04.svg

<svg fill="none" height="50" viewBox="0 0 70 50" width="70" xmlns="http://www.w3.org/2000/svg" xmlns:xlink="http://www.w3.org/1999/xlink"><clipPath id="a"><path d="m7 5h56v40h-56z"/></clipPath><g clip-path="url(#a)" clip-rule="evenodd" fill="#221e1f" fill-rule="evenodd"><path d="m28.8431 38.974v5.9272c-.6431.0642-1.3009.0998-1.9655.0998-10.9491-.001-19.8776-8.9866-19.8776-20.001s8.9285-20 19.8776-20c.6646 0 1.3215.03557 1.9655.09981v5.92719c-.6431-.0929-1.3009-.1423-1.9655-.1423-7.7268 0-14.032 6.3461-14.032 14.1163 0 7.7701 6.3052 14.1163 14.032 14.1163.6646 0 1.3215-.0504 1.9655-.1423z"/><path d="m47.0222 21.9475h11.4802v6.1119h-11.4802c1.3922 6.3106 7.0052 11.0569 13.6922 11.0569.6647 0 1.3294-.0504 1.9725-.1423v5.9272c-.65.0642-1.3078.0998-1.9725.0998-10.95 0-19.8706-8.9866-19.8706-20s8.9216-20.001 19.8716-20.001c.6647 0 1.3215.03557 1.9725.09981v5.92719c-.65-.0929-1.3078-.1423-1.9725-.1423-6.687 0-12.3 4.7453-13.6922 11.0638z"/></g></svg>

<svg width="70" height="50" viewBox="0 0 70 50" fill="none" xmlns="http://www.w3.org/2000/svg">
<g clip-path="url(#clip0_2436_206840)">
<path fill-rule="evenodd" clip-rule="evenodd" d="M28.8431 38.974V44.9012C28.2 44.9654 27.5422 45.001 26.8776 45.001C15.9285 45 7 36.0144 7 25C7 13.9856 15.9285 5 26.8776 5C27.5422 5 28.1991 5.03557 28.8431 5.09981V11.027C28.2 10.9341 27.5422 10.8847 26.8776 10.8847C19.1508 10.8847 12.8456 17.2308 12.8456 25.001C12.8456 32.7711 19.1508 39.1173 26.8776 39.1173C27.5422 39.1173 28.1991 39.0669 28.8431 38.975V38.974Z" fill="#221E1F"/>
<path fill-rule="evenodd" clip-rule="evenodd" d="M47.0222 21.9475H58.5024V28.0594H47.0222C48.4144 34.37 54.0274 39.1163 60.7144 39.1163C61.3791 39.1163 62.0438 39.0659 62.6869 38.974V44.9012C62.0369 44.9654 61.3791 45.001 60.7144 45.001C49.7644 45.001 40.8438 36.0144 40.8438 25.001C40.8438 13.9876 49.7654 5 60.7154 5C61.3801 5 62.0369 5.03557 62.6879 5.09981V11.027C62.0379 10.9341 61.3801 10.8847 60.7154 10.8847C54.0284 10.8847 48.4154 15.63 47.0232 21.9485L47.0222 21.9475Z" fill="#221E1F"/>
</g>
<defs>
<clipPath id="clip0_2436_206840">
<rect width="56" height="40" fill="white" transform="translate(7 5)"/>
</clipPath>
</defs>
</svg>
